X: 14627
T: Gan Ainm
R: reel
M: 4/4
K: Eminor
B,EEE DEFA|BFAF EDB,A,|B,EEE DEFA|BFAF E3 D|
B,EEE DEFA|BFAF EDB,A,|B,EEE DEFA|BFAF E3 z:|
Beee defa|bfaf edBA|Beee defa|bfaf e3 d|
Beee defa|bfaf efga|bfaf edBA|BFAF E3 z:|

